X:1
T:Rose and Kate's
C:Liz Carroll
L:1/8
Q:1/4=120
M:9/8
K:G
|: [Gd]2 g gab ag^f | g2 d d2 B B2 G | [Gd]2 g gab agf | g2 d d2 B B2 G |
 e2 g ged ged | e2 g ged B2 A | G2 d dgg gab | G2 d dgg gab | 
a3 afd afd | egg ged e/f/ed | G2 d ded ded | ded ded ded :|
 e2 d2 dc BAG | e2 d2 dc BAG | e2 g2 ed e2 G | e2 g2 ed edG | 
B2 g2 ed e2 G | B2 g2 ed edB | A2 d ded ded | ded ded ded :| 



